X:45
T:Return to Milltown
C:Traditional
M:C|
R:reel
K:Dm
D2 (3(FED) ADFD | C2EC FCEC | D2 (3A,A,A, D2 ED | CDEG cGED |
D2 (3(FED) ADFD | C2EC FCEC | (3FFF FD (3EEE ED | CDEG cGED :|
K:D
|: d2de f2ed | cdef gfec | (3ddd de (3fff ed | cAGE EDD2 |
d2de f2ed | cdef (3ggg ga | (3fff fd efed | cAGE EDD2 :|

%%newpage
%%scale .68
%%staffsep 25

